X:1
T:Rex Gloriae, 87.87 D
T:Rex Gloriae, 87.87 D
T:Henry Thomas Smart, 1868
T:Public Domain Courtesy of the Cyber Hymnal™
C:Henry Thomas Smart, 1868
Z:Public Domain
Z:Courtesy of the Cyber Hymnal™
%%score ( 1 2 ) ( 3 4 )
L:1/8
Q:1/4=110
M:4/4
K:G
V:1 treble 
V:2 treble 
V:3 bass 
V:4 bass 
V:1
 [DG]2 [A,D]2 [B,G]2 [DA]2 | B3 z c [DB]2 [DA]2 | [Dd]2 [B,G]2 [EA]2 (Bc) | [DB]2 [DA]2 [DB]4 | %4
 [DB]2 [DA]2 [DB]2 [Dd]2 | G2 [DF]2 [DF]2 [=CE]2 | [EA]2 A2 [Dd]2 [DF]2 | [DE]2 [^CE]2 D4 | %8
 D3 [DE] [DF]2 [EA]2 | [DG]2 [DF]2 [CE]2 [B,D]2 | [B,G]2 [DA]2 (Bc) [Dd]2 | [Dc]2 [DB]2 [DA]4 | %12
 [DG]2 D2 [DG]2 [DA]2 | B3 z c [DB]2 [DA]2 x | [Dd]2 [B,G]2 [Ec]2 [DB]2 | A2 z [B,G]4 x |] %16
V:2
 x8 | D2 D2 x5 | x6 E2 | x8 | x8 | (B,^C) x6 | x2 (FE) x4 | x4 D4 | D3 x5 | x8 | x4 D2 x2 | x8 | %12
 x2 D2 x4 | D2 G2 x6 | x8 | D3 (A2 C) x2 |] %16
V:3
 [G,B,]2 [F,A,]2 [E,G,]2 F,2 | G,3 z A, [D,G,]2 [D,F,]2 | [B,,G,]2 [E,G,]2 [C,G,]2 G,2 | %3
 [D,G,]2 [D,F,]2 [G,,G,]4 | G,2 [D,F,]2 G,2 [F,A,]2 | [E,B,]2 A,2 A,2 [A,,A,]2 | %6
 [^C,G,]2 (A,G,) [B,,F,]2 [A,,A,]2 | [G,,B,]2 (A,G,) [D,F,]4 | [D,F,]3 [D,G,] [D,A,]2 [A,,^C]2 | %9
 B,2 [D,A,]2 ([E,G,][F,A,]) [G,B,]2 | [E,G,]2 [D,F,]2 (G,A,) [B,,B,]2 | [A,,F,]2 [G,,G,]2 F,4 | %12
 [B,,G,]2 F,2 [B,,G,]2 [A,,F,]2 | G,3 z A, G,2 z x2 | [B,,G,]2 [E,G,]2 [C,G,]2 [G,,G,]2 | %15
 [D,G,]2 [D,F,]2 [G,,G,]4 |] %16
V:4
 x6 (D,C,) | B,,2 G,,2 x5 | x6 (B,,A,,) | x8 | G,2 G,2 x4 | x2 (F,G,) A,2 x2 | x2 A,,2 x4 | %7
 x2 A,,2 x4 | x8 | (B,,C,) x6 | x4 G,2 x2 | x4 (D,2 C,2) | x2 (D,C,) x4 | G,,2 (E,2 D,3) (F,2 C,) | %14
 x8 | x8 |] %16

